dist/img/file-types/csv.svg

<svg xmlns="http://www.w3.org/2000/svg" viewBox="0 0 40 40" enable-background="new 0 0 40 40"><path fill="#67BD48" d="M0 0h40v40H0z"/><path fill="#fff" d="M11 13.1v13.7h18V13.1H11zm5.4 12.6h-4.2v-3h4.2v3zm0-4.1h-4.2v-3h4.2v3zm0-4.2h-4.2v-3h4.2v3zm11.4 8.3H17.6v-3h10.2v3zm0-4.1H17.6v-3h10.2v3zm0-4.2H17.6v-3h10.2v3z"/></svg>

<?xml version="1.0" encoding="utf-8"?>
<!-- Generator: Adobe Illustrator 18.1.0, SVG Export Plug-In . SVG Version: 6.00 Build 0)  -->
<!DOCTYPE svg PUBLIC "-//W3C//DTD SVG 1.1//EN" "http://www.w3.org/Graphics/SVG/1.1/DTD/svg11.dtd">
<svg version="1.1" id="Layer_1" xmlns="http://www.w3.org/2000/svg" xmlns:xlink="http://www.w3.org/1999/xlink" x="0px" y="0px"
	 viewBox="0 0 40 40" enable-background="new 0 0 40 40" xml:space="preserve">
<rect fill="#67BD48" width="40" height="40"/>
<path fill="#FFFFFF" d="M11,13.1v13.7h18V13.1H11z M16.4,25.7h-4.2v-3h4.2V25.7L16.4,25.7z M16.4,21.6h-4.2v-3h4.2V21.6z M16.4,17.4
	h-4.2v-3h4.2V17.4L16.4,17.4z M27.8,25.7H17.6v-3h10.2V25.7z M27.8,21.6H17.6v-3h10.2V21.6z M27.8,17.4H17.6v-3h10.2V17.4z"/>
</svg>
